!!!OTL: Ecce reges terre
**kern
*staff1
=--
*clefC1
*k[]
1f
1f
=-
1f
1f
=-
0e
=-
0e
=-
1a
1a
=-
1g
1cc
=-
2cc
4b
4a
2b
2b
=-
0cc
!!linebreak:original
=-
1f
1f
=-
1g
1g
=-
1f
2.a
4g
=-
2f
4e
4d
2c
1f
2e
=-
0f
=-
!!linebreak:original
*M3/1
0f
1e
=-
0.f
=-
0f
1g
=-
0a
1b
=-
0a
1g
=-
0.a
!!linebreak:original
=-
0g
1g
=-
0f
1e
=-
0.f
=-
0g
1g
=-
0f
1f
=-
0f
1e
=-
0.f
=-=
*-
!!title: @{OTL}, @{GTL}, ed. @{ENC}
!!!pag:
!!!GTL: Hymnbook C
!!!EFL: 
!!!YEM: Creative Commons CC/BY/NC/SA 4.0
!!!ENC: Marcin Konik
!!!END: 2015-0m-dd
!!!EED: Marcin Konik
!!!EEV: 
!!!ONB: Encoded in vim by Marcin Konik
!!!CharacterEncoding: utf-8
!!!RDF**kern: l=long note in original notation
!!!RDF**kern: i=editorial accidental
!!muse2ps: z14jc180F
!!!COM: Anonim
!!!CDT: [?]
!!!TXO: Polish
!!!ODT: 
!!!GTL: Hymnbook C
!!!ARL: Opactwo św. Wojciecha, Staniątki 
!!!voices:	1
